X:1
T:Title
%%score { ( 1 3 ) | ( 2 4 ) }
L:1/8
M:6/8
K:Db
V:1 treble nm="Grand Piano"
V:3 treble 
V:2 bass 
V:4 bass 
V:1
 z3 z2[Q:1/4=95] [FA] | [FA]2 [FA] [DF]2 [FA] | [Fd]3 [DFA]2 [A,DF] | %3
 [A,CG]2 [A,CE] [A,FA]2 [A,EG] |[M:5/8] [A,DF]-[A,DF]- [A,DF]3 |[M:1/8] [DFA] | %6
[M:3/4] [EGc]2 [EGc] [EGB]2 [EGA] | d2 z2 z2 | [Fc]2 [FB] [_FA]2 =G |[M:5/8] F-F- F3 |[M:1/8] A | %11
[M:3/4] A2 [FA] [DF]2 [FA] | [Ad]2 [GA] [FA]2 [FA] | B2 d d2 B |[M:5/8] [FA]-[FA]- [FA]3 | %15
[M:1/8] [FA] |[M:3/4] [Fd]2 [FA] [FA]2 F |[M:7/8] G2 A B3 [DGB] | %18
[M:3/4] [DFA]2 [DFA] [CEA]2 [A,CG] |[M:5/8] [A,DF]-[A,DF]- [A,DF]3 | %20
[M:3/4][K:bass] D2[K:treble] z2 z2 | F>[EG] [FA]4 | [DGB]>[Ac] [Ad]2 [FA]2 | [DF]>B [DFA]4 | %24
 [DF]>[DFA] [DGB]4 | [DGB]>[Gc] [Fd]4 | [DF]A [GB]A [B,EG]2 |[M:7/8] [B,DF]2 [DF]2 [CE]3 | %28
[M:3/4] D>E F4 | FG [DFA]4 | [DFA]2 [B,DG]2 [A,DF]2 | [DB]>[B,GB] [DFA]4 | [DGB]>[EAc] [DAd]4 | %33
 z2 A4 |[M:2/4] C2 z2 | D2 z2 |] %36
V:2
 z3 z2 [D,D] | [D,D]2 [D,D] [D,A,]2 [D,A,] | [D,A,]3 D,2 D, | E,2 E, A,,2 A,, |[M:5/8] D,-D,- D,3 | %5
[M:1/8] D, |[M:3/4] A,,2 A,, B,,2 C, | z2 A D,2 [D,A,] | [C,A,]2 [C,A,] [C,B,]2 [C,B,C] | %9
[M:5/8] [F,A,C]-[F,A,C]- [F,A,C]3 |[M:1/8] [E,G,C] |[M:3/4] [D,F,D]2 [D,A,] [D,A,]2 [D,A,] | %12
 [F,A,]2 [E,C] [D,D]2 [D,D] | [G,DG]2 [G,B,G] [G,B,G]2 [G,DG] |[M:5/8] [D,D]-[D,D]- [D,D]3 | %15
[M:1/8] [D,D] |[M:3/4] [D,D]2 [D,D] [D,D]2 [D,A,D] |[M:7/8] [G,B,]2 z z z z2 | %18
[M:3/4] A,,2 A,, A,,2 A,, |[M:5/8] D,-D,- D,3 |[M:3/4] z z/ G,/ [D,A,D]4 | [D,D]>[D,D] [D,D]4 | %22
 z z/ E/ F,2 D,2 | z z/ G/ D,4 | D,>D, G,4 | G,>[E,A,] [D,A,]4 | z F z F G,,2 | %27
[M:7/8] =G,,2 [A,,A,]2 [A,,A,]3 |[M:3/4] [D,F,]>[D,G,D] [D,A,D]4 | DE D,4 | D,2 D,2 D,2 | %31
 G,>G, D,4 | G,>G, F,4 | z z/[K:treble] D/ [DF]2[K:bass] C2 |[M:2/4] .A,2 z2 | [D,F,A,]2 z2 |] %36
V:3
 x6 | x6 | x6 | x6 |[M:5/8] x5 |[M:1/8] x |[M:3/4] x6 | [DF]3 [DFA]2 [FB] | x6 |[M:5/8] x5 | %10
[M:1/8] x |[M:3/4] x6 | x6 | x6 |[M:5/8] x5 |[M:1/8] x |[M:3/4] x6 |[M:7/8] x7 |[M:3/4] x6 | %19
[M:5/8] x5 |[M:3/4][K:bass] F,>E[K:treble] F4 | x6 | z2 D4 | x6 | x6 | x6 | z2 D2 z2 |[M:7/8] x7 | %28
[M:3/4] x6 | x6 | x6 | x6 | x6 | [B,DE]>B z2 E2 |[M:2/4] z A, D2 | x4 |] %36
V:4
 x6 | x6 | x6 | x6 |[M:5/8] x5 |[M:1/8] x |[M:3/4] x6 | D,4 z2 | x6 |[M:5/8] x5 |[M:1/8] x | %11
[M:3/4] x6 | x6 | x6 |[M:5/8] x5 |[M:1/8] x |[M:3/4] x6 |[M:7/8] D2- [F,A,D] [G,D]3 G,, | %18
[M:3/4] x6 |[M:5/8] x5 |[M:3/4] D,2 z2 z2 | x6 | G,2 z2 z2 | D,2 z2 z2 | x6 | x6 | D,2 G,,2 z2 | %27
[M:7/8] x7 |[M:3/4] x6 | [D,A,]2 z2 z2 | x6 | x6 | x6 | G,2[K:treble] A,4[K:bass] | %34
[M:2/4] A,,-[A,,G,] [D,F,A,]2 | x4 |] %36

